X:0750
T:Pleyel's Fancy.
M:2/4
L:1/8
Q:1/4=128
I: :: :|
Z:Jack Campin * www.campin.me.uk * 2009
K:D
.f(g/f/) .e(f/e/)|d2Ad |ee`ee   |a2fz|\
.f(g/f/) .e(f/e/)|d2Ad |ee ee/f/|d4 :|
 aa       c'2    |aad'2|gf`ga   |f2dz|\
 aa       c'2    |aad'2|gf`ge   |d4 :|
<end>
<start>
